!!!!SEGMENT: pl-kk--kk-i-1--012-004_borek-krzysztof--missa-sanctus.krn
!!!cenid: 15xx:695
!!!COM: Borek, Krzysztof
!!!COM-rismid: pe30020454
!!!CDT:
!!!CNT:
!!!OPR: [Missa]
!!!OTL: Sanctus
!!!OMV: 004
!!!PDT:
!!!AGN:
!!!SMS-siglum: PL-Kk
!!!SMS-shelfmark: Kk.I.1
!!!SMS-shelfwork: 012-004 M
!!!SMS-variant:
!!!SMS-altvar:
!!!NIFC-rismid: 300257966
!!!URL-scan: http://repozytorium.nifc.pl/skany/pl-kk-nut--i-1
!!!ONB-nifc: UWAGA: Quintus (s.69r-75r, skan 0071-0077), Cantus (s. 65r-68v, skan 0067-0071), Altus (s. 66r-72v, skan 0258-0265), Tenor (s. 64r-70v, skan 0453-0460), Bassus (s. 64r-70r, skan 0625-0631). Części Mszy: 1. Kyrie, 2. Et in terra, 3. Patrem, 4. Sanctus
!!!key:
**kern	**text	**kern	**text	**kern	**text	**kern	**text	**kern	**text
*part5	*part5	*part4	*part4	*part3	*part3	*part2	*part2	*part1	*part1
*staff5	*staff5	*staff4	*staff4	*staff3	*staff3	*staff2	*staff2	*staff1	*staff1
*I"BASSVS	*	*I"TENOR	*	*I"ALTVS	*	*I"CANTVS	*	*I"QUINTVS	*
*I'B	*	*I'T	*	*I'A	*	*I'C	*	*I'[5]	*
*Ibass	*	*Itenor	*	*Ialto	*	*Isoprn	*	*Isoprn	*
*ICvox	*	*ICvox	*	*ICvox	*	*ICvox	*	*ICvox	*
*clefF5	*	*clefC4	*	*clefC4	*	*clefC3	*	*clefC3	*
*k[]	*	*k[]	*	*k[]	*	*k[]	*	*k[]	*
*d:	*	*d:	*	*d:	*	*d:	*	*d:	*
*M2/1	*	*M2/1	*	*M2/1	*	*M2/1	*	*M2/1	*
*met(C|)	*	*met(C|)	*	*met(C|)	*	*met(C|)	*	*met(C|)	*
=1-	=1-	=1-	=1-	=1-	=1-	=1-	=1-	=1-	=1-
!	!	!	!	!LO:TX:t=P:problem:sześciolinia	!	!LO:TX:t=P:problem:sześciolinia	!	!LO:TX:t=P:problem:sześciolinia	!
0r	.	1D	San-	0r	.	1r	.	1r	.
.	.	1.A	.	.	.	1A	San-	1A	SAN-
=2-	=2-	=2-	=2-	=2-	=2-	=2-	=2-	=2-	=2-
0r	.	.	.	1r	.	1.d	-ctus	1.d	-CTVS
.	.	2G/	.	.	.	.	.	.	.
.	.	1A	.	1A	SAnc-	.	.	.	.
.	.	.	.	.	.	2c/	.	2c/	.
=3-	=3-	=3-	=3-	=3-	=3-	=3-	=3-	=3-	=3-
1r	.	2.D/	.	1.d	.	1d	.	1d	.
.	.	4E/	.	.	.	.	.	.	.
1AA	(S)AN-	2F/	.	.	.	2A/	.	2A/	.
*	*	*	*	*	*	*	*	*	*ij
.	.	2E/	.	2c\	-tus	2e\	.	2e\	SAN-
=4-	=4-	=4-	=4-	=4-	=4-	=4-	=4-	=4-	=4-
1.D	.	4D/	.	1d	.	1.f	.	1.f	CTVS
.	.	4E/	.	.	.	.	.	.	.
.	.	4F/	.	.	.	.	.	.	.
.	.	4G/	.	.	.	.	.	.	.
.	.	4A\	.	2A/	.	.	.	.	.
.	.	4B\	.	.	.	.	.	.	.
!	!	!LO:SIC:v:t=custos A	!	!	!	!	!	!	!
2C/	.	2c\	.	2e\	.	2e\	.	2e\	SAN-
!	!	!LO:PB:g=original	!	!	!	!	!	!	!
=5-	=5-	=5-	=5-	=5-	=5-	=5-	=5-	=5-	=5-
1D	.	1A	-ctus	1.f	.	1d	.	1d	CTVS
!	!	!	!	!	!	!	!	!LO:SIC:v:t=custos d 	!
1AA	.	2r	.	.	.	1c	.	1c	.
*	*	*	*ij	*	*	*	*	*	*
.	.	1A\	San-	2e\	.	.	.	.	.
!	!	!	!	!	!	!	!	!LO:LB:g=original	!
=6-	=6-	=6-	=6-	=6-	=6-	=6-	=6-	=6-	=6-
1D	.	.	.	1d	.	2d\	.	2d\	SAN-
.	.	2D/	.	.	.	4f\	.	4f\	-CTVS
.	.	.	.	.	.	4e\	.	4e\	.
!	!	!	!	!LO:SIC:v:t=custos d	!	!	!	!	!
1.F	.	2.A/	-ctus	0c	.	4f\	.	4f\	.
.	.	.	.	.	.	4g\	.	4g\	.
.	.	.	.	.	.	1a\	.	1a\	.
.	.	4G/	.	.	.	.	.	.	.
!	!	!	!	!LO:PB:g=originak	!	!	!	!	!
=7-	=7-	=7-	=7-	=7-	=7-	=7-	=7-	=7-	=7-
.	.	4A/	.	.	.	.	.	.	.
.	.	4B/	.	.	.	.	.	.	.
2E\	.	2c\	San-	.	.	2g\	.	2g\	.
1D	.	2A/	.	2d\	.	1f	.	1f	SAN-
.	.	2F/	.	2B/	.	.	.	.	.
=8-	=8-	=8-	=8-	=8-	=8-	=8-	=8-	=8-	=8-
1C	.	2G/	-ctus	2.c/	.	1e	.	1e	CTVS
.	.	2A/	Sa-	.	.	.	.	.	.
.	.	.	.	4B/	.	.	.	.	.
1D	-CTVS	2F/	.	2A/	.	1d	.	1d	.
.	.	2D/	-ctus	1d\	.	.	.	.	.
=9-	=9-	=9-	=9-	=9-	=9-	=9-	=9-	=9-	=9-
!LO:SIC:v:t=custos D	!	!	!	!	!	!LO:SIC:v:t=custos f	!	!	!
1r	.	1E	San-	.	.	1g	.	1g	SAN-
.	.	.	.	2c\	.	.	.	.	.
!LO:LB:g=original	!	!	!	!	!	!LO:LB:g=original	!	!	!
2r	.	2D/	.	1d	.	1f	.	1f	CTVS
*	*ij	*	*	*	*	*	*	*	*
!	!	!LO:SIC:v:t=custos c	!	!	!	!	!	!	!
2D\	San-	2A\	-ctus	.	.	.	.	.	.
!	!	!LO:LB:g=original	!	!	!	!	!	!	!
=10-	=10-	=10-	=10-	=10-	=10-	=10-	=10-	=10-	=10-
2.C/	.	1.c	San-	2.g\	.	2r	.	2r	.
.	.	.	.	.	.	2e\	.	2e\	.
4D/	.	.	.	4f\	.	.	.	.	.
4E\	.	.	.	2e\	.	1.g	.	1.g	SAN-
4F\	.	.	.	.	.	.	.	.	.
2G\	.	2B/	.	2.d\	.	.	.	.	.
=11-	=11-	=11-	=11-	=11-	=11-	=11-	=11-	=11-	=11-
1D	.	1A	-ctus	.	.	.	.	.	.
.	.	.	.	4c/	.	.	.	.	.
.	.	.	.	2d\	.	2f\	.	2f\	-CTVS
2GG/	.	1G	San-	1B	.	2e/	.	2e/	.
2BB/	.	.	.	.	.	1d\	.	1d\	.
=12-	=12-	=12-	=12-	=12-	=12-	=12-	=12-	=12-	=12-
1AA	.	1A	-ctus	2r	.	.	.	.	.
.	.	.	.	2A/	.	2c/	.	2c/	SAN-
2GG/	-ctus	2r	.	2B/	.	4d\	.	4d/	-CTVS
*	*	*	*	*	*	*	*	*	*Xij
!	!	!	!	!	!	!	!	!LO:SIC:v:t=custos f	!
.	.	.	.	.	.	4e\	.	4e/	.
!	!	!	!	!LO:SIC:v:t=custos d	!	!	!	!LO:LB:g=original	!
2.D\	San-	2D/	San-	2A/	.	4f\	.	4f\	.
.	.	.	.	.	.	4g\	.	4g\	.
!	!	!	!	!LO:LB:g=original	!	!	!	!	!
=13-	=13-	=13-	=13-	=13-	=13-	=13-	=13-	=13-	=13-
.	.	1.A	.	1d	.	2.a\	.	2.a\	.
4C\	.	.	.	.	.	.	.	.	.
4D\	.	.	.	.	.	.	.	.	.
4E\	.	.	.	.	.	4g\	.	4g\	.
2F\	.	.	.	1c	.	2f\	.	2f\	.
2C/	.	2G/	-ctus	.	.	2.e\	.	2.e\	.
=14-	=14-	=14-	=14-	=14-	=14-	=14-	=14-	=14-	=14-
!LO:SIC:v:t=custos AA	!	!	!	!	!	!	!	!	!
1D	.	1F	San-	2r	.	.	.	.	.
.	.	.	.	.	.	4d/	.	4d/	.
.	.	.	.	2.A/	Do-	1d	.	1d	.
!LO:LB:g=original	!	!	!	!	!	!	!	!	!
1AA	.	1E	.	.	.	.	.	.	.
.	.	.	.	4A/	-mi-	.	.	.	.
.	.	.	.	2A/	-nus	2c/	.	2c/	.
=15-	=15-	=15-	=15-	=15-	=15-	=15-	=15-	=15-	=15-
2D\	-ctus	2D/	-ctus	2F/	.	0d	.	0d	.
*	*Xij	*	*Xij	*	*	*	*	*	*
2.F\	Do-	2.A/	Do-	2D/	De-	.	.	.	.
.	.	.	.	2.F/	-us	.	.	.	.
4F\	-mi-	4A/	-mi-	.	.	.	.	.	.
2F\	-nus	2A/	-nus	.	.	.	.	.	.
.	.	.	.	4G/	.	.	.	.	.
=16-	=16-	=16-	=16-	=16-	=16-	=16-	=16-	=16-	=16-
2D/	De-	2F/	De-	2A/	.	2r	.	2r	.
!	!	!LO:SIC:v:t=custos F	!	!	!	!	!	!	!
2F\	-us	2D/	-(us)	2.d\	.	2.f\	Do-	2.f\	Do-
!	!	!LO:LB:g=original	!	!	!	!	!	!	!
2D/	Sab-	2.F/	Sa-	.	.	.	.	.	.
.	.	.	.	4d\	.	4f\	-mi-	4f\	-mi-
2D/	-ba-	.	.	2d\	.	2f\	-nus	2f\	-nus
.	.	4G/	ba -	.	.	.	.	.	.
=17-	=17-	=17-	=17-	=17-	=17-	=17-	=17-	=17-	=17-
1AA	-oth	1A	-oth	2c\	.	2e\	de-	2e\	De-
.	.	.	.	2A\	.	2c/	-us	2c/	-us
1r	.	1r	.	2B\	Sab-	2d/	Sab-	2d/	Sab-
.	.	.	.	2c\	-ba-	2e\	-ba-	2e\	-ba-
=18-	=18-	=18-	=18-	=18-	=18-	=18-	=18-	=18-	=18-
*	*ij	*	*	*	*	*	*	*	*
!	!	!	!	!LO:SIC:v:t=custos A	!	!LO:SIC:v:t=custos f	!	!LO:SIC:v:t=custos f	!
1.D	Do-	2r	.	0d	-oth	0f	-oth	0f	-oth
*	*	*	*ij	*	*	*	*	*	*
.	.	2.A/	Do-	.	.	.	.	.	.
.	.	4A/	-mi-	.	.	.	.	.	.
2D/	-mi-	2A/	-nus	.	.	.	.	.	.
!	!	!	!	!LO:LB:g=original	!	!LO:LB:g=original	!	!LO:LB:g=original	!
=19-	=19-	=19-	=19-	=19-	=19-	=19-	=19-	=19-	=19-
1D	-nus	1d	De-	2r	.	2r	.	2r	.
*	*	*	*	*	*ij	*	*	*	*ij
.	.	.	.	2.A/	Do-	2.f\	Do-	2.f\	Do-
1F	De-	2c\	.	.	.	.	.	.	.
.	.	.	.	4A/	-mi-	4f\	-mi-	4f\	-mi-
.	.	1A\	.	2A/	-nus	2f\	-nus	2f\	-nus
=20-	=20-	=20-	=20-	=20-	=20-	=20-	=20-	=20-	=20-
1E	-us	.	.	2.B/	De-	1g	De-	1g	De-
.	.	2G/	.	.	.	.	.	.	.
.	.	.	.	4c\	.	.	.	.	.
2.D/	Do-	4A/	.	2d\	-us	2f\	-us	2f\	-us
.	.	4G/	.	.	.	.	.	.	.
.	.	4F/	.	1A\	Sab-	2.d/	Sab-	2.d/	Sab-
4C/	.	4E/	.	.	.	.	.	.	.
=21-	=21-	=21-	=21-	=21-	=21-	=21-	=21-	=21-	=21-
2BB/	.	1D	.	.	.	.	.	.	.
.	.	.	.	.	.	4d/	.	4d/	.
!LO:SIC:v:t=custos AA	!	!	!	!	!	!	!	!	!
2BB/	-mi-	.	.	2G/	-ba-	2d/	-ba-	2d/	-ba-
!LO:LB:g=original	!	!	!	!	!	!	!	!	!
1AA	-nus	2E/	-us	2A/	-oth	2c/	-th	2c/	-th
!	!	!LO:SIC:v:t=custos D	!	!	!	!	!	!	!
.	.	2F/	Sa-	2F/	Do-	2A/	.	2A/	Do-
!	!	!LO:LB:g=original	!	!	!	!	!	!	!
=22-	=22-	=22-	=22-	=22-	=22-	=22-	=22-	=22-	=22-
2GG/	De-	2D/	.	2G/	-mi-	2B/	.	2B/	-mi-
1FF	.	1A	.	2A/	-nus	2c/	.	2c/	-nus
.	.	.	.	1B	De-	1d	.	1d	De-
2GG/	-us	4G/	.	.	.	.	.	.	.
.	.	4F/	.	.	.	.	.	.	.
=23-	=23-	=23-	=23-	=23-	=23-	=23-	=23-	=23-	=23-
2AA/	Sab	2E/	.	2A/	-us	2c/	.	2c/	-us
2BB/	.	2D/	.	2G/	Sab-	1d	.	1d	Sab-
1AA	ba-	1E	-ba-	1A	-ba-	.	.	.	.
.	.	.	.	.	.	2c/	.	2c/	-ba-
=24-	=24-	=24-	=24-	=24-	=24-	=24-	=24-	=24-	=24-
!	!	!	!	!LO:SIC:v:t=custos A	!LO:N:vis=00	!	!LO:N:vis=00	!	!
1D	-oth	1D	-oth	1A	-oth	000d	.	000d	-th
*	*	*	*	*	*	*	*	*	*Xij
!	!	!	!	!LO:LB:g=original	!	!	!	!	!
2r	.	2r	.	2r	.	.	.	.	.
2.D\	Do-	2.F/	Do-	2.A/	Do-	.	.	.	.
=25-	=25-	=25-	=25-	=25-	=25-	=25-	=25-	=25-	=25-
.	.	.	.	.	.	.	.	.	.
4D\	-mi-	4F/	-mi-	4A/	-mi-	.	.	.	.
2D\	-nus	2F/	-nus	2A/	-nus	.	.	.	.
2GG/	De-	2G/	De-	2B/	De-	.	.	.	.
2D\	-us	2F/	-(us)	2A/	-us	.	.	.	.
=26-	=26-	=26-	=26-	=26-	=26-	=26-	=26-	=26-	=26-
1.GG	Sab-	2.B\	Sa-	2.G/	Sab-	.	.	.	.
!	!	!LO:SIC:v:t=custos G	!	!	!	!	!	!	!
.	.	4A/	.	4A/	.	.	.	.	.
!	!	!LO:LB:g=original	!	!	!	!	!	!	!
.	.	2G/	.	2B\	.	.	.	.	.
2GG/	-ba-	2G/	-ba-	2B\	-ba-	.	.	.	.
=27-	=27-	=27-	=27-	=27-	=27-	=27-	=27-	=27-	=27-
!LO:SIC:v:t=custos D	!	!LO:N:vis=00	!	!	!	!	!	!	!
!LO:N:vis=00	!	!	!	!	!	!	!	!	!
0D	-oth	0F	-oth	0A	-oth	.	.	.	.
*	*Xij	*	*Xij	*	*Xij	*	*	*	*
!LO:PB:g=original	!	!	!	!	!	!LO:PB:g=original	!	!LO:PB:g=original	!
=28||-	=28||-	=28||-	=28||-	=28||-	=28||-	=28||-	=28||-	=28||-	=28||-
1.D	Ple-	0r	.	0r	.	0r	.	0r	.
2BB/	-ni	.	.	.	.	.	.	.	.
=29-	=29-	=29-	=29-	=29-	=29-	=29-	=29-	=29-	=29-
1C	ſunt	0r	.	1.A	Ple-	1r	.	1r	.
2.D/	cae-	.	.	.	.	2r	.	2r	.
.	.	.	.	2F/	-ni	1d\	Ple-	1d\	Ple-
4C/	.	.	.	.	.	.	.	.	.
=30-	=30-	=30-	=30-	=30-	=30-	=30-	=30-	=30-	=30-
1BB	-li	1r	.	1G	su(n)t	.	.	.	.
.	.	.	.	.	.	2B/	.	2B/	.
2AA/	.	2r	.	1A	coe-	1c	-ni	1c	-ni
2AA/	.	1A\	Ple-	.	.	.	.	.	.
=31-	=31-	=31-	=31-	=31-	=31-	=31-	=31-	=31-	=31-
!	!	!	!	!LO:SIC:v:t=custos d	!	!	!	!	!
2D\	.	.	.	2D/	-li	1d	ſunt	1d	ſunt
!	!	!	!	!LO:LB:g=original	!	!	!	!	!
2D\	.	2F/	-ni	1d	.	.	.	.	.
1BB	.	1G	ſunt	.	.	1d	coe-	1d	coe-
.	.	.	.	2B\	.	.	.	.	.
=32-	=32-	=32-	=32-	=32-	=32-	=32-	=32-	=32-	=32-
1AA	.	1A	cae-	1c	.	2A/	-li	2A/	-li
*	*	*	*	*	*	*	*	*clefC4	*
.	.	.	.	.	.	2e\	et	2e\	et
2r	.	2D/	-li	1d	.	1f	ter-	1f	ter-
2D/	&	2A\	et	.	.	.	.	.	.
=33-	=33-	=33-	=33-	=33-	=33-	=33-	=33-	=33-	=33-
!	!	!LO:SIC:v:t=custos B	!	!	!	!	!	!	!
2C/	ter-	1c	ter-	2G/	.	2e\	.	2e\	.
!LO:SIC:v:t=custos B	!	!LO:LB:g=original	!	!	!	!	!	!	!
2AA/	-ra	.	.	2A/	et	2c\	-ra	2c\	-ra
!LO:LB:g=original	!	!	!	!	!	!	!	!	!
2BB/	.	2B\	.	2G/	ter-	2d\	.	2d\	.
2C/	.	2G/	-ra	4E/	-ra	2e\	.	2e\	.
.	.	.	.	4F/	.	.	.	.	.
=34-	=34-	=34-	=34-	=34-	=34-	=34-	=34-	=34-	=34-
2GG/	.	1B	.	4G/	.	2d\	.	2d\	.
.	.	.	.	4A/	.	.	.	.	.
*	*ij	*	*	*	*	*	*	*	*
2G\	et	.	.	4B\	.	1g	.	1g	.
.	.	.	.	4c\	.	.	.	.	.
*	*	*	*	*	*ij	*	*	*	*
2D\	ter-	1A	.	1d	et	.	.	.	.
2F\	-ra	.	.	.	.	2f\	.	2f\	.
=35-	=35-	=35-	=35-	=35-	=35-	=35-	=35-	=35-	=35-
1E	et	2r	.	1e	ter-	1g	.	1g	.
*	*	*	*ij	*	*	*	*	*	*
.	.	2B\	et	.	.	.	.	.	.
4D\	ter-	1d	ter-	2A/	-ra	1f	.	1f	.
4E\	.	.	.	.	.	.	.	.	.
4F\	.	.	.	2f\	et	.	.	.	.
4G\	.	.	.	.	.	.	.	.	.
=36-	=36-	=36-	=36-	=36-	=36-	=36-	=36-	=36-	=36-
2A\	.	2c\	-ra	2e\	.	2r	.	2r	.
!	!	!	!	!	!	!	!	!LO:SIC:v:t=custos e	!
2D/	.	2A/	et	2d\	.	2f\	.	2f\	.
!	!	!	!	!	!	!	!	!LO:LB:g=original	!
*	*	*	*	*	*	*	*	*clefC3	*
0E	-ra	1c	ter-	2.g\	ter-	2.e\	.	2.e\	.
*	*Xij	*	*	*	*	*	*	*	*
.	.	.	.	4f\	.	4f\	.	4f\	.
=37-	=37-	=37-	=37-	=37-	=37-	=37-	=37-	=37-	=37-
.	.	1B	-ra	1e	.	1g	.	1g	.
*	*	*	*Xij	*	*	*	*	*	*
!	!	!	!	!LO:SIC:v:t=custos d	!	!	!	!	!
1r	.	2r	.	2d\	.	2f\	.	2f\	.
!	!	!	!	!LO:LB:g=original	!	!	!	!	!
.	.	2.D/	Glo-	1d\	.	1f\	.	1f\	.
=38-	=38-	=38-	=38-	=38-	=38-	=38-	=38-	=38-	=38-
1r	.	.	.	.	.	.	.	.	.
.	.	4D/	-ri-	.	.	.	.	.	.
.	.	2D/	-a	4c/	.	4e\	.	4e\	.
!	!	!	!	!	!	!LO:SIC:v:t=custos c	!	!	!
.	.	.	.	4B/	.	4d\	.	4d\	.
!	!	!	!	!	!	!LO:LB:g=original	!	!	!
2r	.	1F	tu-	2A/	-ra	1c	.	1c	.
*	*	*	*	*	*Xij	*	*	*	*
2.AA/	glo-	.	.	2.A/	glo-	.	.	.	.
=39-	=39-	=39-	=39-	=39-	=39-	=39-	=39-	=39-	=39-
!	!	!LO:SIC:v:t=custos D	!	!	!	!	!	!	!
.	.	0E	.	.	.	2r	.	2r	.
4AA/	-ri-	.	.	4A/	-ri-	.	.	.	.
2AA/	-a	.	.	2A/	-a	2.c/	glo-	2.c/	glo-
*lig	*	*	*	*	*	*	*	*	*
1C	tu-	.	.	2G/	.	.	.	.	.
.	.	.	.	.	.	4c/	-ri-	4c/	-ri-
.	.	.	.	1A\	tu-	2c/	-a	2c/	-a
!	!	!LO:LB:g=original	!	!	!	!	!	!	!
=40-	=40-	=40-	=40-	=40-	=40-	=40-	=40-	=40-	=40-
!LO:SIC:v:t=custos AA	!	!	!	!	!	!	!	!	!
1BB	-a	1D	-a	.	.	1d	tu-	1d	tu-
.	.	.	.	2G/	-a	.	.	.	.
*Xlig	*	*	*	*	*	*	*	*	*
!LO:LB:g=original	!	!	!	!	!	!	!	!	!
2AA/	.	2r	.	2A/	.	2c/	-a	2c/	-a
*	*	*	*ij	*	*ij	*	*	*	*ij
2.FF/	.	2.A/	Glo-	2.c/	glo-	2.f\	.	2.f\	glo-
=41-	=41-	=41-	=41-	=41-	=41-	=41-	=41-	=41-	=41-
.	.	.	.	.	.	.	.	.	.
4FF/	.	4A/	-ri-	4c/	-ri-	4f\	.	4f\	-ri-
2FF/	.	2A/	-a	2c/	-a	2f\	.	2f\	-a
1C	.	1G	tu-	1c	tu-	1e	.	1e	tu-
=42-	=42-	=42-	=42-	=42-	=42-	=42-	=42-	=42-	=42-
2D/	.	2F/	-a	2A/	-a	2d\	.	2d\	a
2.C/	.	2.c\	Glo-	2.e\	glo-	2.g\	glo-	2.g\	glo-
4C/	.	4c\	-ri-	4e\	-ri-	4g\	-ri-	4g\	-ri-
!	!	!	!	!LO:SIC:v:t=custos e	!	!	!	!	!
2C/	.	2c\	-a	2e\	-a	2g\	-a	2g\	-a
*	*	*	*	*	*Xij	*	*	*	*
!	!	!	!	!LO:LB:g=original	!	!	!	!LO:LB:g=original	!
=43-	=43-	=43-	=43-	=43-	=43-	=43-	=43-	=43-	=43-
1C	.	1c	tu-	1e	tu-	1g	tu-	1g	tu-
!LO:SIC:v:t=custos D	!	!	!	!	!	!	!	!	!
!LO:N:vis=00	!	!LO:N:vis=00	!	!LO:N:vis=00	!	!LO:N:vis=00	!	!LO:N:vis=00	!
1D	.	1A	-a	1d	-a	1f	-a.	1f	-a.
*	*	*	*Xij	*	*	*	*	*	*Xij
!LO:LB:g=original	!	!	!	!	!	!	!	!	!
=44||-	=44||-	=44||-	=44||-	=44||-	=44||-	=44||-	=44||-	=44||-	=44||-
0D	O-	0F	O-	0A	O-	0d	O-	0d	O-
=45-	=45-	=45-	=45-	=45-	=45-	=45-	=45-	=45-	=45-
0GG	-san-	0G	-San-	0B	-ſan-	0d	-ſan-	0d	-ſan-
=46-	=46-	=46-	=46-	=46-	=46-	=46-	=46-	=46-	=46-
!	!	!LO:SIC:v:t=custos A	!	!	!	!LO:SIC:v:t=custos f	!	!LO:SIC:v:t=custos f	!
00C/	-na	00E	-na	00/A	-na	00c	-na.	00c	-na.
!	!	!LO:LB:g=original	!	!	!	!LO:LB:g=original	!	!LO:LB:g=original	!
=47-	=47-	=47-	=47-	=47-	=47-	=47-	=47-	=47-	=47-
.	.	.	.	.	.	.	.	.	.
=48-	=48-	=48-	=48-	=48-	=48-	=48-	=48-	=48-	=48-
0FF	in	0A	in	0c	in	0f	in	0f	in
=49-	=49-	=49-	=49-	=49-	=49-	=49-	=49-	=49-	=49-
*lig	*	*lig	*	*lig	*	*lig	*	*lig	*
1C	ex-	1G	ex-	1c	ex-	1e	ex-	1e	ex-
1D	.	1F	.	1A	.	1d	-cel-	1d	-cel-
*Xlig	*	*Xlig	*	*Xlig	*	*Xlig	*	*Xlig	*
=50-	=50-	=50-	=50-	=50-	=50-	=50-	=50-	=50-	=50-
0AA	-cel-	0E	-cel-	0A	-cel-	2d\	-ſis	2d\	-ſis
.	.	.	.	.	.	4c/	.	4c/	.
.	.	.	.	.	.	4B/	.	4B/	.
.	.	.	.	.	.	1c	.	1c	.
=51-	=51-	=51-	=51-	=51-	=51-	=51-	=51-	=51-	=51-
!LO:SIC:v:t=custos D	!	!	!	!LO:SIC:v:t=custos A	!	!	!	!	!
!LO:N:vis=00	!	!LO:N:vis=00	!	!LO:N:vis=00	!	!LO:N:vis=00	!	!LO:N:vis=00	!
0D	-ſis	0D	-sis	0/A	-sis	0d	.	0d	.
!LO:LB:g=original	!	!	!	!LO:LB:g=original	!	!	!	!LO:LB:g=original	!
=52||-	=52||-	=52||-	=52||-	=52||-	=52||-	=52||-	=52||-	=52||-	=52||-
1.D	BE-	0D	Be-	1r	.	0r	.	0r	.
.	.	.	.	0A	Be   -	.	.	.	.
4C/	-NE-	.	.	.	.	.	.	.	.
4BB/	.	.	.	.	.	.	.	.	.
=53-	=53-	=53-	=53-	=53-	=53-	=53-	=53-	=53-	=53-
1AA	-DIC-	1F	-ne-	.	.	1r	.	1r	.
2GG/	-TVS	1G	-dic-	1B	-ne-	1d	Be-	1d	BE-
2BB/	.	.	.	.	.	.	.	.	.
=54-	=54-	=54-	=54-	=54-	=54-	=54-	=54-	=54-	=54-
1AA	.	1A	-t(us)	1c	-dic-	1e	-ne-	1e	-Ne-
1D	.	2r	.	1.d	-tus	1f	-dic-	1f	-dic-
.	.	2A/	Be-	.	.	.	.	.	.
=55-	=55-	=55-	=55-	=55-	=55-	=55-	=55-	=55-	=55-
2r	.	1B	-ne-	.	.	1.g	-tus	1.g	-tus
2GG/	.	.	.	2d\	.	.	.	.	.
!	!	!LO:SIC:v:t=custos d	!	!	!	!	!	!	!
2C\	.	1c	-di-	1e	.	.	.	.	.
2E\	.	.	.	.	.	2g\	qui	2g\	qui
!	!	!	!LO:PB:g=original	!	!	!	!	!	!
=56-	=56-	=56-	=56-	=56-	=56-	=56-	=56-	=56-	=56-
1D	.	1.d	-ctus	1A	.	1f	ve-	1f	ve-
2.AA/	Qui	.	.	2r	.	1.e	-nit	1.e	-nit
.	.	2.c\	q(ui)	1.A\	Qui	.	.	.	.
4BB/	.	.	.	.	.	.	.	.	.
=57-	=57-	=57-	=57-	=57-	=57-	=57-	=57-	=57-	=57-
2C/	.	.	.	.	.	.	.	.	.
.	.	4B/	ve-	.	.	.	.	.	.
!LO:SIC:v:t=custos B	!	!	!	!	!	!	!	!	!
2D/	.	1A	.	.	.	2f\	.	2f\	.
!LO:LB:g=original	!	!	!	!	!	!	!	!	!
1BB	ve-	.	.	1B	ve:	1d	.	1d	.
.	.	2G/	-nit	.	.	.	.	.	.
=58-	=58-	=58-	=58-	=58-	=58-	=58-	=58-	=58-	=58-
1AA	-nit	0A	.	2.c\	.	2r	.	2r	.
*	*	*	*	*	*	*	*	*	*ij
!	!	!	!	!	!	!LO:SIC:v:t=custos c	!	!	!
.	.	.	.	.	.	2A/	qui	2A/	qui
.	.	.	.	4d\	.	.	.	.	.
!	!	!	!	!	!	!LO:LB:g=original	!	!	!
2r	.	.	.	2e\	.	2.c/	.	2.c/	ve-
!	!	!	!	!LO:SIC:v:t=custos e	!	!	!	!	!
2AA/	Be-	.	.	2e\	.	.	.	.	.
.	.	.	.	.	.	4d\	.	4d\	.
!	!	!	!	!LO:PB:g=original	!	!	!	!	!
=59-	=59-	=59-	=59-	=59-	=59-	=59-	=59-	=59-	=59-
1C	-ne-	2r	.	4e\	.	1e	.	1e	-nit
.	.	.	.	4d\	.	.	.	.	.
.	.	2G/	Be-	4c\	.	.	.	.	.
.	.	.	.	4B/	.	.	.	.	.
0D	-dic-	0d	-ne-	0A	.	2r	.	2r	.
.	.	.	.	.	.	2d\	be-	2d\	be-
=60-	=60-	=60-	=60-	=60-	=60-	=60-	=60-	=60-	=60-
.	.	.	.	.	.	1f	-ne-	1f	-ne-
1E	-tus	1B	-dic-	2r	.	1g	-dic-	1g	-dic-
*	*	*	*	*	*ij	*	*	*	*
.	.	.	.	2E/	Be-	.	.	.	.
!	!	!	!	!	!	!	!	!LO:LB:g=original	!
=61-	=61-	=61-	=61-	=61-	=61-	=61-	=61-	=61-	=61-
1AA	qui	2.c\	-t(us)	2E/	-ne-	1a	-tus	1a	-tus
.	.	.	.	2E/	-dic-	.	.	.	.
.	.	4B/	q(ui)	.	.	.	.	.	.
1D	ve-	2A/	ue-	2.F/	-tus	2d/	qui	2d/	qui
.	.	1d\	-nit	.	.	2f\	ve-	2f\	ve-
.	.	.	.	4G/	.	.	.	.	.
=62-	=62-	=62-	=62-	=62-	=62-	=62-	=62-	=62-	=62-
2AA/	-nit	.	.	2A/	.	1e	-(nit)	1e	-nit
2AA/	.	2c\	.	2.A/	Qui	.	.	.	.
1.D	.	1d	.	.	.	2r	.	2r	.
.	.	.	.	4G/	.	.	.	.	.
.	.	.	.	2F/	ve-	2d/	bene:-	2d/	bene-
=63-	=63-	=63-	=63-	=63-	=63-	=63-	=63-	=63-	=63-
!	!	!LO:SIC:v:t=custos A	!	!	!	!	!	!	!
.	.	1r	.	1E	-nit	1.g	-(di-	1.g	-di-
*	*	*	*	*	*Xij	*	*	*	*
2C/	.	.	.	.	.	.	.	.	.
!	!	!LO:LB:g=original	!	!	!	!	!	!	!
2D\	.	1A	in	2D/	in	.	.	.	.
1F\	.	.	.	2A/	no-	2f\	-ctus	2f\	-ctus
=64-	=64-	=64-	=64-	=64-	=64-	=64-	=64-	=64-	=64-
.	.	2A/	no-	1.d	-mi-	1f	qui	1f	qui
4E\	.	2A/	-mi-	.	.	.	.	.	.
4D\	.	.	.	.	.	.	.	.	.
1E	.	1G	-ne	.	.	2g\	ve-	2g\	ve-
!	!	!	!	!LO:SIC:v:t=custos d	!	!	!	!	!
.	.	.	.	2c\	-(n)e	2e\	.	2e\	.
!	!	!	!	!LO:LB:g=original	!	!	!	!	!
=65-	=65-	=65-	=65-	=65-	=65-	=65-	=65-	=65-	=65-
!LO:SIC:v:t=custos AA	!	!	!	!	!	!	!	!	!
0D	.	2F/	.	2d\	.	1f	-nit	1f	-nit
.	.	1A	Do-	1f	.	.	.	.	.
.	.	.	.	.	.	2r	.	2r	.
.	.	4G/	.	4e\	.	2d\	qui	2d/	qui
.	.	4F/	.	4d\	.	.	.	.	.
!LO:LB:g=original	!	!	!	!	!	!	!	!	!
=66-	=66-	=66-	=66-	=66-	=66-	=66-	=66-	=66-	=66-
0r	.	2E/	-mi-	2c\	Do-	1.g	ve-	1.g	ve-
.	.	2D/	-ni	1d	-mi-	.	.	.	.
.	.	1E	.	.	.	.	.	.	.
!	!	!	!	!	!	!LO:SIC:v:t=f	!	!	!
.	.	.	.	2c\	-ni.	2g\	-nit	2g\	-nit
!	!	!	!	!	!	!LO:LB:g=original	!	!	!
=67-	=67-	=67-	=67-	=67-	=67-	=67-	=67-	=67-	=67-
0r	.	1D	.	1.d	.	2f\	qui	2f\	qui
.	.	.	.	.	.	1f	ve-	1f	ve-
.	.	2r	.	.	.	.	.	.	.
*	*	*	*ij	*	*	*	*	*	*
.	.	2D/	in	4c/	.	4e\	.	4e/	.
!	!	!	!	!	!	!	!	!LO:SIC:v:t=custos c	!
.	.	.	.	4B/	.	4d\	.	4d/	.
!	!	!	!	!	!	!	!	!LO:LB:g=original	!
=68-	=68-	=68-	=68-	=68-	=68-	=68-	=68-	=68-	=68-
0AA	IN	2E/	no-	1A	.	2c/	.	2c/	.
.	.	2F/	-mi-	.	.	1d	.	1d	.
.	.	1E	-ne	2r	.	.	.	.	.
*	*	*	*	*	*ij	*	*	*	*
.	.	.	.	2e\	in	2c/	.	2c/	.
=69-	=69-	=69-	=69-	=69-	=69-	=69-	=69-	=69-	=69-
1.D	no-	2.D/	Do-	1.f	no-	1d	-nit	1d	-nit
*	*	*	*	*	*	*	*	*	*Xij
!	!	!LO:SIC:v:t=custos F	!	!	!	!	!	!	!
.	.	4E/	.	.	.	.	.	.	.
!	!	!LO:LB:g=original	!	!	!	!	!	!	!
.	.	2F/	.	.	.	1r	.	1r	.
2C/	-mi-	2G/	-mi-	2e\	-mi-	.	.	.	.
=70-	=70-	=70-	=70-	=70-	=70-	=70-	=70-	=70-	=70-
2D/	-ne	2F/	-ni	2d\	-(n)e	0f	In	0f	In
1F	Do-	1A	Do-	1d	Do-	.	.	.	.
4E/	.	4G/	.	4c/	.	.	.	.	.
4D/	-mi-	4F/	.	4B/	.	.	.	.	.
=71-	=71-	=71-	=71-	=71-	=71-	=71-	=71-	=71-	=71-
2C/	-ni	2E/	.	2c/	.	2g\	no-	2g\	no-
!	!	!	!	!LO:SIC:v:t=custos G	!	!	!	!	!
1D	.	2D/	-mi-	2A/	-mi-	2f\	.	2f\	.
!	!	!	!	!LO:LB:g=original	!	!	!	!	!
.	.	1E	-ni	1G	-ni	1g	-mi-	1g	-mi-
2C/	.	.	.	.	.	.	.	.	.
=72-	=72-	=72-	=72-	=72-	=72-	=72-	=72-	=72-	=72-
1D	.	2.D/	in	2r	.	2f\	-ne	2f\	-ne
.	.	.	.	2d\	in	1f	do-	1f	do-
.	.	4E/	.	.	.	.	.	.	.
2r	.	2.F/	.	2d\	no-	.	.	.	.
*	*ij	*	*	*	*	*	*	*	*
2D\	in	.	.	4c/	-mi-	4e/	-mi-	4e/	-mi-
.	.	4G/	.	4B/	-(n)e	4d/	.	4d/	.
=73-	=73-	=73-	=73-	=73-	=73-	=73-	=73-	=73-	=73-
1.F	no-	2A/	.	2A/	Do-	1c	-ni	1c	-ni
.	.	2A/	no-	2A/	-mi-	.	.	.	.
.	.	1.c	-mi-	2A/	-ni	2r	.	2r	.
*	*	*	*	*	*	*	*	*clefC4	*ij
2E\	-mi-	.	.	2e\	in	2g\	in	2g\	in
=74-	=74-	=74-	=74-	=74-	=74-	=74-	=74-	=74-	=74-
2.C/	-ne	.	.	1.g	no-	1.e	no-	1.e	no-
!	!	!LO:SIC:v:t=custos G	!	!	!	!	!	!	!
.	.	2c\	-ne	.	.	.	.	.	.
4D/	.	.	.	.	.	.	.	.	.
!	!	!LO:LB:g=original	!	!	!	!	!	!	!
2E\	.	2G/	Do-	.	.	.	.	.	.
!LO:SIC:v:t=custos D	!	!	!	!	!	!	!	!	!
2C/	Do-	2.A/	.	2g\	-mi-	2e\	-(mi-	2e\	-mi-
!LO:LB:g=original	!	!	!	!	!	!	!	!	!
=75-	=75-	=75-	=75-	=75-	=75-	=75-	=75-	=75-	=75-
1.D	.	.	.	2f\	-(n)e	2d\	-n)e	2d\	-ne
.	.	4G/	.	.	.	.	.	.	.
.	.	4F/	.	2d\	Do-	1f	d(o-	1f	do-
.	.	4E/	.	.	.	.	.	.	.
.	.	2.F/	-mi-	2d\	-mi-	.	.	.	.
2D/	-mi-	.	.	4c/	.	2f\	-mi)-	2f\	-mi-
.	.	4G/	.	4B/	.	.	.	.	.
=76-	=76-	=76-	=76-	=76-	=76-	=76-	=76-	=76-	=76-
!LO:N:vis=00	!	!LO:N:vis=00	!	!LO:N:vis=00	!	!LO:N:vis=00	!	!LO:N:vis=00	!
0AA	-ni	0A	-ni	0c	-ni	0e	-ni	0e	-ni
*	*Xij	*	*Xij	*	*Xij	*	*	*	*Xij
=||	=||	=||	=||	=||	=||	=||	=||	=||	=||
*-	*-	*-	*-	*-	*-	*-	*-	*-	*-
!!!system-decoration: s1[(s2,s3,s4,s5)]
!!!ENC: Mateusz Solarz
!!!END: 2022-02-15
!!!AIN: 1 alto 1 bass 2 soprn 1 tenor
!!!ENC: Urszula Świątek
!!!END: 2022-02-23
